packages/icons/svg/Fill/upload.svg

<svg fill="none" height="24" viewBox="0 0 24 24" width="24" xmlns="http://www.w3.org/2000/svg"><path clip-rule="evenodd" d="m4.99998 4h14.00002c.55 0 1 .45 1 1v2c0 .55-.45 1-1 1s-1-.45-1-1v-1h-12.00002v1c0 .55-.45 1-1 1s-1-.45-1-1v-2c0-.51563.39551-.94336.89814-.99481.03351-.00343.06749-.00519.10186-.00519zm3.00104 10.0001c-.305 0-.604-.138-.801-.4-.332-.442-.242-1.069.2-1.4l3.99998-3.00003c.346-.26001.822-.26701 1.175-.018l4 2.81403c.452.318.561.942.243 1.393s-.941.561-1.393.243l-2.4279-1.708c.0019.0251.0029.0503.0029.0758v8c0 .552-.447 1-1 1s-1-.448-1-1v-7.9996l-2.39998 1.7998c-.18.135-.39.2-.599.2z" fill="#6b7280" fill-rule="evenodd"/></svg>

<svg width="24" height="24" viewBox="0 0 24 24" fill="none" xmlns="http://www.w3.org/2000/svg">
<g id="Icon/Fill/upload">
<path id="Mask" fill-rule="evenodd" clip-rule="evenodd" d="M5 4H19C19.55 4 20 4.45 20 5V7C20 7.55 19.55 8 19 8C18.45 8 18 7.55 18 7V6H6V7C6 7.55 5.55 8 5 8C4.45 8 4 7.55 4 7V5C4 4.45 4.45 4 5 4ZM8.001 14C7.696 14 7.397 13.862 7.2 13.6C6.868 13.158 6.958 12.531 7.4 12.2L11.4 9.2C11.746 8.94 12.222 8.933 12.575 9.182L16.575 11.996C17.027 12.314 17.136 12.938 16.818 13.389C16.5 13.84 15.877 13.95 15.425 13.632L12.9972 11.9241C12.999 11.9492 13 11.9745 13 12V20C13 20.552 12.553 21 12 21C11.447 21 11 20.552 11 20V12.0002L8.6 13.8C8.42 13.935 8.21 14 8.001 14Z" fill="#000000"/>
</g>
</svg>
